X: 13972
T: Francie Byrne's
R: mazurka
M: 3/4
K: Dmajor
|:A/|B>c d2 A2|c2 B2- B>B|c>d e2 g2|f2 d2- d>A|
B>c d2 A2|c2 B2- B>B|c>d e2 g2|f2 d2- d3/2:|
|:e/|f>a e>^d e>c|d>B A>^G A>B|c>d e2 e2|a2 f2- f>e|
d>f e>^d e>c|d>B A>^G A>B|c>d e2 g2|f2 d2- d3/2:|

